icons/health_alt_fill.svg

<svg width="48" height="48" viewBox="0 0 48 48" fill="none" xmlns="http://www.w3.org/2000/svg">
<path fill-rule="evenodd" clip-rule="evenodd" d="M6 9C6 7.34315 7.34315 6 9 6L39 6C40.6569 6 42 7.34315 42 9V39C42 40.6569 40.6569 42 39 42H9C7.34315 42 6 40.6569 6 39L6 9ZM21.9998 22V14L25.9998 14V22H33.9998L33.9998 26H25.9998V34H21.9998V26H13.9998L13.9998 22H21.9998Z" fill="black"/>
</svg>

<svg
  xmlns="http://www.w3.org/2000/svg"
  width="24"
  height="24"
  viewBox="0 0 24 24"
  fill="none"
  stroke="currentColor"
  stroke-width="2"
  stroke-linecap="round"
  stroke-linejoin="round"
>
  <path
    fill-rule="evenodd"
    d="M6 9a3 3 0 0 1 3-3h30a3 3 0 0 1 3 3v30a3 3 0 0 1-3 3H9a3 3 0 0 1-3-3zm16 13v-8h4v8h8v4h-8v8h-4v-8h-8v-4z"
    clip-rule="evenodd"
  />
</svg>
